X: 115
M: 4/4
L: 1/4
K: C
"^mf"G | G>E EG | G>D DE | FG  AB | G3 ||
"!f"G | e>e d"^,"yc | c>B B"^,"yc | dB AG | c3 ||
c | c>A Ac | c>G GG | Ac Gd | c3 |]


